X: 422
M: 6/8
L: 1/8
K: D
V: 1
(ga/g/f/e/) (fg/f/e/d/) | eEE E2A | TF2D A(d/c/B/A/) | FDD D2 :|
|: f |\
(f>ef) def | gaf efg | (Tf>ef) def | (ab/a/g) Tf2d |\
g(a/g/f/e/) f(g/f/e/d/) | eEE E2A | TF2A (Bd/c/B/A/) | dDD D2 :|
V: 2 clef=bass middle=d
z |\
d3 d3 | c3 c3 | d3 d3 | d3 d3 |\
g3 f3 | e3 e3 | d3 d3 | d3 d2 :|
|: z |\
d3 d3 | e3 e3 | d3 d3 | d3 d3 |\
e3 d3 | A3 A3 | d3 d3 | d3 d2 :|

